X: 4
T: Rosie's
C: Kevin Crawford
Z: ceili
S: https://thesession.org/tunes/394#setting53809
R: reel
M: 4/4
L: 1/8
K: Dmaj
|:"Bm"FBBA ~B2 dA|"A"FA ~A2 ABFE|"Bm"FBBA ~B2 AB|"D"defd "A"~e2eg|
"Bm"fBBA ~B2 dA|"A"FAAF ABFE|"Bm"FA ~B2 "Em"dBfd|"A"cAec "Bm"dBBA:|
fBBB "Em7"g4-|gffe edcB|"A"A2 ~A2 EAce|aefa fece|
"Bm"fB ~B2 "Em7"gfeg|"Bm"fB ~B2 "D"dcBc|"A"ABcA EAce|aece "Bm"fB ~B2|
"Bm"fB ~B2 "A"geag|"D"fB ~B2 "G"dBec|"A"A2 ~A2 EAce|aega fece|
"Bm"fB ~B2 bafe|fB ~B2 "G"dcBc|"A"a4 afec|"D"~d2 cA "Bm"B4||

%-------------------- TUNE SEPARATOR --------------------%

